shared/images/iconfont/48-kb-iconfont-identity-github-16.svg

<?xml version="1.0" encoding="UTF-8"?>
<svg width="16px" height="16px" viewBox="0 0 16 16" version="1.1" xmlns="http://www.w3.org/2000/svg" xmlns:xlink="http://www.w3.org/1999/xlink">
    <!-- Generator: sketchtool 57.1 (101010) - https://sketch.com -->
    <title>A071F84F-2C3D-45DF-86AE-188888656DD9</title>
    <desc>Created with sketchtool.</desc>
    <g id="Symbols" stroke="none" stroke-width="1" fill="none" fill-rule="evenodd">
        <g id="48-kb-iconfont-identity-github-16">
            <g>
                <rect id="icon-area" opacity="0" x="0" y="0" width="16" height="16"></rect>
                <path d="M0,8.20338983 C0,11.8277265 2.29224349,14.9027071 5.47088826,15.9874271 C5.87070279,16.0633643 6.01748692,15.8094705 6.01748692,15.5927982 C6.01748692,15.3973177 6.0102007,14.7509686 6.00662383,14.0654962 C3.7810161,14.5617369 3.31138637,13.0976027 3.31138637,13.0976027 C2.94747301,12.1495426 2.42313042,11.897279 2.42313042,11.897279 C1.69729085,11.388133 2.47784328,11.3985931 2.47784328,11.3985931 C3.28118169,11.4564629 3.70417964,12.2440905 3.70417964,12.2440905 C4.41769888,13.4980729 5.57567729,13.1355034 6.03219183,12.925895 C6.10412665,12.395829 6.31132013,12.0338029 6.54010731,11.8289491 C4.76319799,11.6216501 2.89527721,10.9181103 2.89527721,7.7747998 C2.89527721,6.87931153 3.20778963,6.14738027 3.71954693,5.57289303 C3.63648407,5.36627324 3.36265483,4.53191508 3.79717825,3.40195886 C3.79717825,3.40195886 4.46896734,3.18161875 5.99761542,4.2429734 C6.63575545,4.06121319 7.32012983,3.9700614 8,3.96680113 C8.67987017,3.9700614 9.36477446,4.06121319 10.0041068,4.2429734 C11.5310327,3.18161875 12.2018944,3.40195886 12.2018944,3.40195886 C12.6373452,4.53191508 12.3635159,5.36627324 12.2804531,5.57289303 C12.7934027,6.14738027 13.103663,6.87931153 13.103663,7.7747998 C13.103663,10.9257176 11.2322978,11.6193407 9.4507518,11.8224285 C9.73769623,12.0770015 9.99337617,12.5762308 9.99337617,13.3415798 C9.99337617,14.439205 9.98423528,15.3226031 9.98423528,15.5927982 C9.98423528,15.8112365 10.1282374,16.0670321 10.533616,15.9864762 C13.710671,14.9005336 16,11.8266397 16,8.20338983 C16,3.6725615 12.4182288,0 8,0 C3.58230112,0 0,3.6725615 0,8.20338983 Z" id="Icon-github" fill="#000000"></path>
            </g>
        </g>
    </g>
</svg>

<svg xmlns="http://www.w3.org/2000/svg" width="16" height="16" viewBox="0 0 16 16">
    <path fill="#000" fill-rule="evenodd" d="M0 8.203c0 3.625 2.292 6.7 5.47 7.784.4.076.547-.178.547-.394 0-.196-.007-.842-.01-1.528-2.226.497-2.696-.967-2.696-.967-.364-.948-.888-1.2-.888-1.2-.726-.51.055-.5.055-.5.803.058 1.226.846 1.226.846.714 1.254 1.872.892 2.328.682.072-.53.28-.892.508-1.097-1.777-.207-3.645-.91-3.645-4.054 0-.896.313-1.628.825-2.202-.084-.207-.357-1.041.077-2.171 0 0 .672-.22 2.2.841A7.495 7.495 0 0 1 8 3.967c.68.003 1.365.094 2.004.276 1.527-1.061 2.198-.841 2.198-.841.435 1.13.162 1.964.078 2.17.513.575.824 1.307.824 2.203 0 3.15-1.872 3.844-3.653 4.047.287.255.542.754.542 1.52 0 1.097-.009 1.98-.009 2.25 0 .22.144.475.55.394C13.71 14.901 16 11.826 16 8.203 16 3.673 12.418 0 8 0S0 3.673 0 8.203z"/>
</svg>
